X:1
T:DANCE OF THE BROWNIES
T:DANCE OF THE BROWNIES
T:(CHARACTERISTIC DANCE.)
T:EFFIE F. KAMMAN.
T:Copyright 1893 by B.C.Whitney.
T:Copyright 1893 by B.C.Whitney.
T:Copyright 1893 by B.C.Whitney.
T:Copyright 1893 by B.C.Whitney.
T:Copyright 1893 by B.C.Whitney.
C:EFFIE F. KAMMAN.
Z:Copyright 1893 by B.C.Whitney.
%%score { ( 1 4 ) | ( 2 3 ) }
L:1/8
Q:1/4=170
M:4/4
K:C
V:1 treble nm="Piano" snm="Pno."
V:4 treble 
V:2 bass 
V:3 bass 
V:1
"^Introduction." G2{/^f} g2 x4 | G2{/^f} g2 x4 |{/^f} g2 G2{/f} g2 G2 |{/^f} g2 G2 x2 || %4
[M:4/4][Q:1/4=170]"^Dance.""^Moderato." z2 | z2[I:staff +1] [CE][I:staff -1] z !>!E4 | F4 x4 | %7
 x4 E2 D2 | x8 | z2[I:staff +1] [CE][I:staff -1] z!<(! E4!<)! | F4 x4 | x4 E2 D2 | C4- C2 || %13
 (3EF^F | !>!G2 [ce]2 !>!e2 [g^c']2 | f2 [ad']2 [ad']2 A>_A | (G>^FG>B) (e2 d2) | E>^DE>G (d2 c2) | %18
 G2 [ce]2 e2 [g^c']2 | f2 [ad']2 [ad']2 A>_A |!<(! G>^FG>B [Ge]2 [=Fd]2 | [Ec]4!<)!!ff! [ec']2 || %22
 (3ef^f | g2 [ce]2 a2 [cf]2 | (g>ec>G) !>!A2 !>!G2 | g2 [ce]2 a2 [cf]2 | [Bfb]4- [Bfb]2 (3bc'^c' | %27
 (d'>ba>b g2) (3bc'^c' | (d'>ba>b g2) (3bc'^c' | (d'>^c'd'>e' d'>=c'b>a) |!<(! g4- g2 (3ef^f!<)! | %31
!<(! g2 [ce]2!<)!!>(! a2 [cf]2!>)! | (g>ec>G) A2 G2 | g2 [ce]2 a2 [cf]2 | (g>ec>G A2 G2) | %35
 [cegc']2 [cegc']>[ceg] [cfa]2 [ceg]2 | [ce]2 [Ac]>[Ac] [FA]2 [EG]2 | [G,E]2 [G,E]>C D2 D>B, | %38
 C4- C2 || (3cd^d | !>!e2 [E^G]2 !>!d2 [EG]2 | [Ac]>(E^D>E) F>E=D>E | ([Ac]>E^D>E) (F>E=D>E) | %43
 [Ac]>(E^D>E) F>E=D>E | !>!e2 [E^G]2 !>!d2 [EG]2 | ([Ac]>E^D>E) (F>E=D>E) | [D^Ge]>^d e>f e>dc>B | %47
!<(! [CEA]2 z2!<)!!f! [B,FG]2 || z2 | z2[I:staff +1] [CE][I:staff -1] z !>!E4 | F4 x4 | x4 E2 D2 | %52
 x8 | z2[I:staff +1] [CE][I:staff -1] z!<(! E4!<)! | F4 x4 | x4 E2 D2 | C4- C2 || (3EF^F | %58
 !>!G2 [ce]2 !>!e2 [g^c']2 | f2 [ad']2 [ad']2 A>_A | (G>^FG>B) (e2 d2) | E>^DE>G (d2 c2) | %62
 G2 [ce]2 e2 [g^c']2 | f2 [ad']2 [ad']2 A>_A |!<(! G>^FG>B [Ge]2 [=Fd]2 | [Ec]4!<)!!ff! [ec']2 || %66
 (3ef^f | g2 [ce]2 a2 [cf]2 | (g>ec>G) !>!A2 !>!G2 | g2 [ce]2 a2 [cf]2 | [Bfb]4- [Bfb]2 (3bc'^c' | %71
 (d'>ba>b g2) (3bc'^c' | (d'>ba>b g2) (3bc'^c' | (d'>^c'd'>e' d'>=c'b>a) |!<(! g4- g2 (3ef^f!<)! | %75
!<(! g2 [ce]2!<)!!>(! a2 [cf]2!>)! | (g>ec>G) A2 G2 | g2 [ce]2 a2 [cf]2 | (g>ec>G A2 G2) | %79
 [cegc']2 [cegc']>[ceg] [cfa]2 [ceg]2 | [ce]2 [Ac]>[Ac] [FA]2 [EG]2 | [G,E]2 [G,E]>C D2 D>B, | %82
 C4- C2 || (3cd^d | !>!e2 [E^G]2 !>!d2 [EG]2 | [Ac]>(E^D>E) F>E=D>E | ([Ac]>E^D>E) (F>E=D>E) | %87
 [Ac]>(E^D>E) F>E=D>E | !>!e2 [E^G]2 !>!d2 [EG]2 | ([Ac]>E^D>E) (F>E=D>E) | [D^Ge]>^d e>f e>dc>B | %91
!<(! [CEA]2 z2!<)!!f! [B,FG]2 || z2 | z2[I:staff +1] [CE][I:staff -1] z !>!E4 | F4 x4 | x4 E2 D2 | %96
 x8 | z2[I:staff +1] [CE][I:staff -1] z!<(! E4!<)! | F4 x4 | x4 E2 D2 | C4- C2 |] %101
V:2
 x4{/^F,} G,2 G,,2 | x4{/^F,} G,2 G,,2 | [D,F,]4 [C,E,]4 | [B,,D,]2 G,,2 G,,,2 || %4
[M:4/4]"^Gracefully." (3E,F,^F, | !>!G,4 x4 | [D,,D,]2 [F,A,D]2 [F,A,D]2 A,>_A, | %7
 (G,>^F,G,>B, G,2 F,2) | (E,>^D,E,>G, [F,D]2 [E,C]2) | G,4 x4 | [D,,D,]2 [F,A,D]2 [F,A,D]2 A,>_A, | %11
 (G,>^F,G,>B, G,2 F,2) | E,4- E,2 || z2 | C,2 [G,CE]2 A,,2 [A,^CG]2 | D,2 [A,DF]2 [A,DF]2 z2 | %16
 B,,2 [G,B,=F]2 G,,2 [G,B,F]2 | C,2 [G,CE]2 E,2 [G,CE]2 | C,2 [G,CE]2 A,,2 [A,^CG]2 | %19
 D,2 [A,DF]2 [A,DF]2 z2 | B,,2 [G,B,=F]2 B,,2 [G,B,F]2 | C,2 [G,CE]2 [C,G,C]2 || z2 | %23
 C,2 [CEG]2 C,2 [CFA]2 | C,2 [CEG]2 [CF]2 [CE]2 | C,2 [CEG]2 C,2 [CFA]2 | %26
 D,2 [G,B,F]2 [G,B,F]2 z2 | G,,2 [G,B,F]2 B,,2 [G,B,F]2 | G,,2 [G,B,F]2 B,,2 [G,B,F]2 | %29
 [D,,D,]2 [A,C^F]2 [D,,D,]2 [A,CF]2 | [G,,G,]2 [F,,F,]2 [E,,E,]2 [D,,D,]2 | C,2 [CEG]2 C,2 [CFA]2 | %32
 C,2 [CEG]2 [CF]2 [CE]2 | C,2 [CEG]2 C,2 [CFA]2 | C,2 [CEG]2 [CF]2 [CE]2 | %35
[K:treble] [CEG]2 [CEG]2 [CFA]2 [CEG]2 | E2 C2 A,2 G,2 |[K:bass] C,4 F,2 F,3/2 x/ | E,4- E,2 || %39
 z2 | E,,2 [E,^G,D]2 E,,2 [E,G,D]2 | (A,,2 [E,A,C]2) (E,,2 [E,A,C]2) | %42
 (B,,2 [E,^G,D]2) (E,,2 [E,G,D]2) | (A,,2 [E,A,C]2) (E,,2 [E,A,C]2) | %44
 (E,,2 [E,^G,D]2) (E,,2 [E,G,D]2) | (A,,2 [E,A,C]2) (E,,2 [E,A,C]2) | %46
 (E,,2 [E,^G,D]2) (^G,,2 [E,G,B,]2) | [A,,E,A,]2 z2 [G,,D,G,]2 || (3E,F,^F, | !>!G,4 x4 | %50
 [D,,D,]2 [F,A,D]2 [F,A,D]2 A,>_A, | (G,>^F,G,>B, G,2 F,2) | (E,>^D,E,>G, [F,D]2 [E,C]2) | G,4 x4 | %54
 [D,,D,]2 [F,A,D]2 [F,A,D]2 A,>_A, | G,>^F,G,>B, G,2 F,2 | E,4- E,2 || z2 | %58
 C,2 [G,CE]2 A,,2 [A,^CG]2 | D,2 [A,DF]2 [A,DF]2 z2 | B,,2 [G,B,=F]2 G,,2 [G,B,F]2 | %61
 C,2 [G,CE]2 E,2 [G,CE]2 | C,2 [G,CE]2 A,,2 [A,^CG]2 | D,2 [A,DF]2 [A,DF]2 z2 | %64
 B,,2 [G,B,=F]2 B,,2 [G,B,F]2 | C,2 [G,CE]2 [C,G,C]2 || z2 | C,2 [CEG]2 C,2 [CFA]2 | %68
 C,2 [CEG]2 [CF]2 [CE]2 | C,2 [CEG]2 C,2 [CFA]2 | D,2 [G,B,F]2 [G,B,F]2 z2 | %71
 G,,2 [G,B,F]2 B,,2 [G,B,F]2 | G,,2 [G,B,F]2 B,,2 [G,B,F]2 | [D,,D,]2 [A,C^F]2 [D,,D,]2 [A,CF]2 | %74
 [G,,G,]2 [F,,F,]2 [E,,E,]2 [D,,D,]2 | C,2 [CEG]2 C,2 [CFA]2 | C,2 [CEG]2 [CF]2 [CE]2 | %77
 C,2 [CEG]2 C,2 [CFA]2 | C,2 [CEG]2 [CF]2 [CE]2 |[K:treble] [CEG]2 [CEG]2 [CFA]2 [CEG]2 | %80
 E2 C2 A,2 G,2 |[K:bass] C,4 F,2 F,3/2 x/ | E,4- E,2 || z2 | E,,2 [E,^G,D]2 E,,2 [E,G,D]2 | %85
 (A,,2 [E,A,C]2) (E,,2 [E,A,C]2) | (B,,2 [E,^G,D]2) (E,,2 [E,G,D]2) | %87
 (A,,2 [E,A,C]2) (E,,2 [E,A,C]2) | (E,,2 [E,^G,D]2) (E,,2 [E,G,D]2) | %89
 (A,,2 [E,A,C]2) (E,,2 [E,A,C]2) | (E,,2 [E,^G,D]2) (^G,,2 [E,G,B,]2) | [A,,E,A,]2 z2 [G,,D,G,]2 || %92
 (3E,F,^F, | !>!G,4 x4 | [D,,D,]2 [F,A,D]2 [F,A,D]2 A,>_A, | (G,>^F,G,>B, G,2 F,2) | %96
 (E,>^D,E,>G, [F,D]2 [E,C]2) | G,4 x4 | [D,,D,]2 [F,A,D]2 [F,A,D]2 A,>_A, | G,>^F,G,>B, G,2 F,2 | %100
 E,4- E,2 |] %101
V:3
 x8 | x8 | x8 | x6 ||[M:4/4] z2 | [C,,C,]2 z2 [A,,,A,,]2 z2 | x6 z2 | [G,,,G,,]2 z2 [B,,,B,,]2 z2 | %8
 [C,,C,]2 z2 [G,,,G,,]2 z2 | [C,,C,]2 z2 [A,,,A,,]2 z2 | x6 z2 | [G,,,G,,]2 z2 [B,,,B,,]2 z2 | %12
 C,2 G,,2 C,,2 || x2 | x8 | x8 | x8 | x8 | x8 | x8 | x8 | x6 || x2 | x8 | x8 | x8 | x8 | x8 | x8 | %29
 x8 | x8 | x8 | x8 | x8 | x8 |[K:treble] x8 | x8 |[K:bass] x4 G,,4 | C,2 G,,2 C,,2 || x2 | x8 | %41
 x8 | x8 | x8 | x8 | x8 | x8 | x6 || z2 | [C,,C,]2 z2 [A,,,A,,]2 z2 | x6 z2 | %51
 [G,,,G,,]2 z2 [B,,,B,,]2 z2 | [C,,C,]2 z2 [G,,,G,,]2 z2 | [C,,C,]2 z2 [A,,,A,,]2 z2 | x6 z2 | %55
 [G,,,G,,]2 z2 [B,,,B,,]2 z2 | C,2 G,,2 C,,2 || x2 | x8 | x8 | x8 | x8 | x8 | x8 | x8 | x6 || x2 | %67
 x8 | x8 | x8 | x8 | x8 | x8 | x8 | x8 | x8 | x8 | x8 | x8 |[K:treble] x8 | x8 |[K:bass] x4 G,,4 | %82
 C,2 G,,2 C,,2 || x2 | x8 | x8 | x8 | x8 | x8 | x8 | x8 | x6 || z2 | [C,,C,]2 z2 [A,,,A,,]2 z2 | %94
 x6 z2 | [G,,,G,,]2 z2 [B,,,B,,]2 z2 | [C,,C,]2 z2 [G,,,G,,]2 z2 | [C,,C,]2 z2 [A,,,A,,]2 z2 | %98
 x6 z2 | [G,,,G,,]2 z2 [B,,,B,,]2 z2 | C,2 G,,2 C,,2 |] %101
V:4
 x8 | x8 | x8 | x6 ||[M:4/4] x2 | x4 z2 [G^c] z | z2 [Ad] z [Ad] z x2 | x8 | x8 | x4 z2 [G^c] z | %10
 z2 [Ad] z [Ad] z x2 | x8 | x6 || x2 | x8 | x8 | x8 | x8 | x8 | x8 | x8 | x6 || x2 | x8 | x8 | x8 | %26
 x8 | x8 | x8 | x8 | x8 | x8 | x8 | x8 | x8 | x8 | x8 | x8 | x6 || x2 | x8 | x8 | x8 | x8 | x8 | %45
 x8 | x8 | x6 || x2 | x4 z2 [G^c] z | z2 [Ad] z [Ad] z x2 | x8 | x8 | x4 z2 [G^c] z | %54
 z2 [Ad] z [Ad] z x2 | x8 | x6 || x2 | x8 | x8 | x8 | x8 | x8 | x8 | x8 | x6 || x2 | x8 | x8 | x8 | %70
 x8 | x8 | x8 | x8 | x8 | x8 | x8 | x8 | x8 | x8 | x8 | x8 | x6 || x2 | x8 | x8 | x8 | x8 | x8 | %89
 x8 | x8 | x6 || x2 | x4 z2 [G^c] z | z2 [Ad] z [Ad] z x2 | x8 | x8 | x4 z2 [G^c] z | %98
 z2 [Ad] z [Ad] z x2 | x8 | x6 |] %101

